X:1148
T:Tipperary Hills.
C:Carey.
B:O'Neill's Music of Ireland
N:O'Neill's - 1148
Z:Transcribed by Stephen Foy (shf@access.digex.net)
Z:abc 1.6
M:9/8
R:slipjig
K:D
F2 A AFA AFA|G2 B BGB BGB|F2 A AFA ABc|d2 B AFD E2 FED:|
|:d2 B AFD DFA|Bcd efg f2 e|d2 B AFD DFA|Bcd AFD E2 feD:|
